cssgg/arrow-long-left-r.svg

<svg
  width="24"
  height="24"
  viewBox="0 0 24 24"
  fill="none"
  xmlns="http://www.w3.org/2000/svg"
>
  <path
    fill-rule="evenodd"
    clip-rule="evenodd"
    d="M4.64872 7.72528L0.398926 11.9608L4.63443 16.2105L6.05103 14.7987L4.23673 12.9783L16.1027 13.019L19.3585 16.2747L23.6011 12.0321L19.3585 7.78945L16.1289 11.019L4.21801 10.9782L6.06055 9.14188L4.64872 7.72528ZM17.9443 12.0321L19.3585 10.6179L20.7727 12.0321L19.3585 13.4463L17.9443 12.0321Z"
    fill="currentColor"
  />
</svg>

<svg viewBox="0 0 24 24" xmlns="http://www.w3.org/2000/svg"><path fill-rule="evenodd" d="M4.64 7.72L.39 11.95l4.23 4.24 1.41-1.42 -1.82-1.83 11.86.04 3.25 3.25 4.24-4.25 -4.25-4.25 -3.23 3.22 -11.92-.05L6 9.06 4.58 7.64Zm13.29 4.3l1.41-1.42 1.41 1.41 -1.42 1.41L17.91 12Z"/></svg>
